assets/mixed.svg

<?xml version="1.0" encoding="iso-8859-1"?>
<!-- Generator: Adobe Illustrator 19.0.0, SVG Export Plug-In . SVG Version: 6.00 Build 0)  -->
<svg version="1.1" id="Layer_1" xmlns="http://www.w3.org/2000/svg" xmlns:xlink="http://www.w3.org/1999/xlink" x="0px" y="0px"
	 viewBox="0 0 512 512" style="enable-background:new 0 0 512 512;" xml:space="preserve">
<g>
	<g>
		<g>
			<path d="M187.628,0H43.707C19.607,0,0,19.607,0,43.707v143.921c0,24.1,19.607,43.707,43.707,43.707h143.921
				c24.1,0,43.707-19.607,43.707-43.707V43.707C231.335,19.607,211.728,0,187.628,0z"/>
			<path d="M468.293,0H324.372c-24.1,0-43.707,19.607-43.707,43.707v143.921c0,24.1,19.607,43.707,43.707,43.707h143.921
				c24.1,0,43.707-19.607,43.707-43.707V43.707C512,19.607,492.393,0,468.293,0z"/>
			<path d="M187.628,280.665H43.707C19.607,280.665,0,300.272,0,324.372v143.921C0,492.393,19.607,512,43.707,512h143.921
				c24.1,0,43.707-19.607,43.707-43.707V324.372C231.335,300.272,211.728,280.665,187.628,280.665z"/>
			<path d="M468.293,280.665H324.372c-24.1,0-43.707,19.607-43.707,43.707v143.921c0,24.1,19.607,43.707,43.707,43.707h143.921
				c24.1,0,43.707-19.607,43.707-43.707V324.372C512,300.272,492.393,280.665,468.293,280.665z"/>
		</g>
	</g>
</g>
<g>
</g>
<g>
</g>
<g>
</g>
<g>
</g>
<g>
</g>
<g>
</g>
<g>
</g>
<g>
</g>
<g>
</g>
<g>
</g>
<g>
</g>
<g>
</g>
<g>
</g>
<g>
</g>
<g>
</g>
</svg>

<?xml version="1.0" encoding="UTF-8"?>
<svg id="Layer_1" xmlns="http://www.w3.org/2000/svg" version="1.1" viewBox="0 0 512 512">
  <!-- Generator: Adobe Illustrator 29.8.2, SVG Export Plug-In . SVG Version: 2.1.1 Build 3)  -->
  <defs>
    <style>
      .st0 {
        fill: #2d2d2d;
      }
    </style>
  </defs>
  <path class="st0" d="M187.63,0H43.71C19.61,0,0,19.61,0,43.71v143.92c0,24.1,19.61,43.71,43.71,43.71h143.92c24.1,0,43.71-19.61,43.71-43.71V43.71c0-24.1-19.61-43.71-43.71-43.71Z"/>
  <path class="st0" d="M468.29,0h-143.92c-24.1,0-43.71,19.61-43.71,43.71v143.92c0,24.1,19.61,43.71,43.71,43.71h143.92c24.1,0,43.71-19.61,43.71-43.71V43.71c0-24.1-19.61-43.71-43.71-43.71Z"/>
  <path class="st0" d="M187.63,280.67H43.71c-24.1,0-43.71,19.61-43.71,43.71v143.92c0,24.1,19.61,43.71,43.71,43.71h143.92c24.1,0,43.71-19.61,43.71-43.71v-143.92c0-24.1-19.61-43.71-43.71-43.71Z"/>
  <path class="st0" d="M468.29,280.67h-143.92c-24.1,0-43.71,19.61-43.71,43.71v143.92c0,24.1,19.61,43.71,43.71,43.71h143.92c24.1,0,43.71-19.61,43.71-43.71v-143.92c0-24.1-19.61-43.71-43.71-43.71Z"/>
</svg>
